Yaru++/mimetypes/48/application-pdf.svg

<svg height="48" viewBox="0 0 12.7 12.7" width="48" xmlns="http://www.w3.org/2000/svg" xmlns:xlink="http://www.w3.org/1999/xlink"><linearGradient id="a" gradientUnits="userSpaceOnUse" x1="6.350384" x2="6.350384" y1=".396869" y2="12.038536"><stop offset="0" stop-color="#fff"/><stop offset=".125" stop-color="#fff" stop-opacity=".098039"/><stop offset=".92500001" stop-color="#fff" stop-opacity=".098039"/><stop offset="1" stop-color="#fff" stop-opacity=".498039"/></linearGradient><linearGradient id="b" gradientTransform="matrix(0 -.03065352 .03080287 0 -3.30013 13.794409)" gradientUnits="userSpaceOnUse" x1="441.37933" x2="52.965569" y1="240.30261" y2="386.30783"><stop offset="0" stop-color="#da1636"/><stop offset="1" stop-color="#f22c42"/></linearGradient><path d="m4.162403.39686933c-.5881423-.0089587-1.0513696.0135414-1.4324701.0775148-.3811032.063972-.692957.1839645-.9213929.411861-.2284333.22789667-.3490013.53960997-.4123769.92087397-.0633756.3812644-.0757476.845434-.0728636 1.4350545v3.2401124 3.2416623c-.00286.5887147.00955 1.0526497.072864 1.4335037.063376.381265.1839436.692978.4123769.920875.2284359.227896.5402897.34789.9213929.411861.3811032.06397.844259.07752 1.4324701.07752h4.3759596c.5882111 0 1.0511261-.01352 1.4314382-.07752.3803118-.064.6912128-.184399.9188048-.412377.227595-.227978.347451-.53947.411345-.920359.06389-.380886.07752-.844114.07752-1.4335037v-3.2416623-3.175l-2.8391084-2.84375407z" opacity=".1"/><path d="m4.1018795.26457824c-2.3994956 0-2.6576787.24525529-2.6459179 2.63787836v3.3152466 3.3152471c-.011774 2.3926217.2464223 2.6378777 2.6459179 2.6378777h4.4973796c2.3994959 0 2.6459179-.245227 2.6459179-2.6378777v-3.3152471l-.000182-3.247159-2.7192266-2.70596596z" fill="url(#b)"/><g fill="#fff"><path d="m5.2068793 7.5424976c.1977509-.3876008.4224917-.8243038.6023734-1.262739l.0711248-.1730762c-.2349574-.894086-.375847-1.6117728-.249981-2.0758369.0338831-.1209874.1740128-.1943928.3238286-.1943928l.091293.00135h.016756c.2051042-.00315.3016816.2577584.3126404.3591968.0181.1689402-.060061.4548553-.060061.4548553 0-.115455.00452-.3020174-.06835-.4630034-.0848239-.1862806-.1658473-.2975641-.2384923-.3152039-.036676.024498-.072328.075226-.084541.172811-.025294.1368243-.032876.3095292-.032876.3985596 0 .3145494.061934.7297238.183646 1.1577127.02296-.066265.043163-.1299308.05923-.1895853.0249576-.0940147.1836283-.7172269.1836283-.7172269s-.039982.8295888-.095836 1.0805953c-.011967.053044-.02517.1055037-.038921.1592014.2007026.5607836.5241071 1.061294.9099053 1.421516.1521135.1421622.3442261.2567866.5260515.361265.3970759-.056738.7626711-.083533 1.0676756-.080157.4046577.00534.7016904.065186.8219707.1836637.058894.057586.082791.1271381.090215.2051036.00177.030331-.013009.1015974-.017341.1194851.00433-.021653.00433-.1281282-.320506-.2318113-.255832-.0817838-.7346376-.0792388-1.3091721-.0180819.6645376.3251192 1.3119473.4866537 1.5171217.3898106.0501626-.0244448.1110009-.1078015.1110009-.1078015s-.036163.1643096-.062129.2053867c-.033141.04463-.098151.092972-.1597843.1092687-.324023.0864497-1.1674691-.1135991-1.9027605-.5337402-.8215114.1209873-1.7237104.3444909-2.4468939.581693-.7106698 1.2454525-1.244958 1.8174602-1.6796106 1.5998602l-.1598008-.08036c-.064957-.03715-.074873-.1275977-.059849-.2012507.050675-.24793.3615654-.6213562.9860503-.994251.06722-.04067.3666391-.1989876.3666391-.1989876s-.2216658.2145427-.2735958.256645c-.4984427.408458-.8663182.9223316-.8571447 1.1215483l.0018.01737c.4234129-.060338 1.0583793-.922148 1.8746943-2.5193919m.2586951.1324587c-.136347.2567866-.2696187.4948724-.3926563.7134799.6806044-.285155 1.4131383-.4676347 2.1104453-.5972652-.0937141-.0647088-.1846887-.1332362-.2702901-.2056693-.3839957-.3251012-.6767508-.7306956-.8889604-1.1575005-.1345795.3625726-.2946114.7478586-.5585385 1.2469551" stroke-width=".103668"/><path d="m1.5878828 6.2177027v3.2416626c-.011456 2.3394527.2397892 2.5791707 2.5745202 2.5791707h4.3759596c2.3347314 0 2.5745204-.239691 2.5745204-2.5791707v-3.2416626z" opacity=".1"/><path d="m6.3503828.39686933v11.64166667h2.1879798c2.3347314 0 2.5745204-.239691 2.5745204-2.5791707v-3.2416626-3.175l-2.6458335-2.64583337z" opacity=".1"/></g><path d="m4.162403.13228604c-.5882111 0-1.0513696.0135414-1.4324701.0775147-.3811032.06397203-.692957.18396459-.9213929.41186099-.2284333.2278968-.3490013.53961007-.4123769.92087407-.0633756.3812643-.0757476.845434-.0728636 1.4350545v3.2401124 3.2416626c-.00286.5887147.00955 1.0526497.072864 1.4335037.063376.381265.1839436.692978.4123769.920874.2284359.227897.5402897.34789.9213929.411861.3811032.06397.844259.07752 1.4324701.07752h4.3759596c.5882111 0 1.0511261-.01352 1.4314382-.07752.3803118-.064.6912128-.184398.9188048-.412377.227595-.227978.347451-.539469.411345-.920358.06389-.380886.07752-.844114.07752-1.4335037v-3.2416626-3.2845539l-2.8008682-2.80086276zm0 .26458329h4.3046465l2.6458335 2.64583337v3.175 3.2416626c0 2.3394797-.239789 2.5791707-2.5745204 2.5791707h-4.3759596c-2.334731 0-2.5859766-.239718-2.5745202-2.5791707v-3.2416626-3.2416626c-.0114432-2.33945377.2397892-2.57917077 2.5745202-2.57917077z" opacity=".4"/><path d="m4.162403.39686933c-2.334731 0-2.5859634.239717-2.5745202 2.57917077v3.2416626 3.2416626c-.011456 2.3394527.2397892 2.5791707 2.5745202 2.5791707h4.3759596c2.3347314 0 2.5745204-.239691 2.5745204-2.5791707v-3.2416626-3.175h-.264583v3.175 3.2416626c0 .5803507-.01625 1.0241217-.07028 1.3461697-.05402.322051-.139877.509149-.264067.633556-.12419.124394-.310716.21051-.6320021.264583-.3212889.05406-.7644342.07028-1.3435886.07028h-4.3759593c-.5791544 0-1.0228501-.01619-1.3451391-.07028-.3222863-.054105-.5103204-.140097-.6351031-.264583-.1247802-.124495-.2105978-.311367-.2640648-.633037-.0534696-.32167-.0684715-.765549-.0656299-1.3456557v-.000529-3.2421666-3.2421793-.0005292c-.002831-.5801064.0121708-1.0239838.0656299-1.3456544.0534696-.3216707.1392846-.5085498.2640648-.63303627.1247801-.1244864.3133354-.210484.6356217-.2645833.3222863-.0540745.7654661-.0702675 1.3446205-.0702675h4.3046465v-.2645834z" fill="url(#a)" opacity=".4"/><path d="m11.112883 3.307286v-.2645833l-2.6458335-2.64583337h-.2645834v1.11364557.04267.022918c0 1.506003.2016019 1.7382252 1.7110604 1.7308441z" fill="#830e21" opacity=".6"/><path d="m11.112883 3.042364-2.6458335-2.64549517v.98132417.04267.022918c0 1.5060031.069406 1.6059637 1.5788645 1.5985826z" fill="#f66f7e"/></svg>

<?xml version="1.0" encoding="UTF-8" standalone="no"?>
<svg
   xmlns:dc="http://purl.org/dc/elements/1.1/"
   xmlns:cc="http://creativecommons.org/ns#"
   xmlns:rdf="http://www.w3.org/1999/02/22-rdf-syntax-ns#"
   xmlns:svg="http://www.w3.org/2000/svg"
   xmlns="http://www.w3.org/2000/svg"
   xmlns:xlink="http://www.w3.org/1999/xlink"
   xmlns:sodipodi="http://sodipodi.sourceforge.net/DTD/sodipodi-0.dtd"
   xmlns:inkscape="http://www.inkscape.org/namespaces/inkscape"
   height="48"
   viewBox="0 0 12.7 12.7"
   width="48"
   version="1.1"
   id="svg32"
   sodipodi:docname="application-pdf.svg"
   inkscape:version="0.92.5 (2060ec1f9f, 2020-04-08)">
  <metadata
     id="metadata38">
    <rdf:RDF>
      <cc:Work
         rdf:about="">
        <dc:format>image/svg+xml</dc:format>
        <dc:type
           rdf:resource="http://purl.org/dc/dcmitype/StillImage" />
      </cc:Work>
    </rdf:RDF>
  </metadata>
  <defs
     id="defs36">
    <linearGradient
       gradientTransform="matrix(0.26458333,0,0,0.26458333,-84.666282,-16.007297)"
       inkscape:collect="always"
       xlink:href="#linearGradient927"
       id="linearGradient1004"
       x1="344"
       y1="62"
       x2="344"
       y2="106"
       gradientUnits="userSpaceOnUse" />
    <linearGradient
       inkscape:collect="always"
       id="linearGradient927">
      <stop
         style="stop-color:#ffffff;stop-opacity:1;"
         offset="0"
         id="stop923" />
      <stop
         id="stop933"
         offset="0.125"
         style="stop-color:#ffffff;stop-opacity:0.09803922" />
      <stop
         id="stop931"
         offset="0.92500001"
         style="stop-color:#ffffff;stop-opacity:0.09803922" />
      <stop
         style="stop-color:#ffffff;stop-opacity:0.49803922"
         offset="1"
         id="stop925" />
    </linearGradient>
    <linearGradient
       inkscape:collect="always"
       xlink:href="#linearGradient4246"
       id="linearGradient1024"
       gradientUnits="userSpaceOnUse"
       gradientTransform="matrix(0,-0.03065352,0.03080287,0,-3.3001302,13.794409)"
       x1="441.37933"
       y1="240.30261"
       x2="52.965569"
       y2="386.30783" />
    <linearGradient
       inkscape:collect="always"
       id="linearGradient4246">
      <stop
         style="stop-color:#da1636;stop-opacity:1"
         offset="0"
         id="stop4248" />
      <stop
         style="stop-color:#f22c42;stop-opacity:1"
         offset="1"
         id="stop4250" />
    </linearGradient>
  </defs>
  <sodipodi:namedview
     pagecolor="#ffffff"
     bordercolor="#666666"
     borderopacity="1"
     objecttolerance="10"
     gridtolerance="10"
     guidetolerance="10"
     inkscape:pageopacity="0"
     inkscape:pageshadow="2"
     inkscape:window-width="834"
     inkscape:window-height="480"
     id="namedview34"
     showgrid="false"
     inkscape:zoom="4.9166667"
     inkscape:cx="24"
     inkscape:cy="24"
     inkscape:window-x="0"
     inkscape:window-y="28"
     inkscape:window-maximized="0"
     inkscape:current-layer="svg32" />
  <linearGradient
     id="a"
     gradientUnits="userSpaceOnUse"
     x1="6.35037552"
     x2="6.35037552"
     y1="284.43230313"
     y2="296.60313631">
    <stop
       offset="0"
       stop-color="#fff"
       id="stop2" />
    <stop
       offset=".125"
       stop-color="#fff"
       stop-opacity=".098039"
       id="stop4" />
    <stop
       offset=".92500001"
       stop-color="#fff"
       stop-opacity=".098039"
       id="stop6" />
    <stop
       offset="1"
       stop-color="#fff"
       stop-opacity=".498039"
       id="stop8" />
  </linearGradient>
  <linearGradient
     id="b"
     gradientTransform="matrix(0 -.02997233 -.02997147 0 15.74006 297.92605)"
     gradientUnits="userSpaceOnUse"
     x1="512"
     x2="-.000001"
     y1="397.99393"
     y2="125.99394">
    <stop
       offset="0"
       stop-color="#da1636"
       id="stop11" />
    <stop
       offset="1"
       stop-color="#f22c42"
       id="stop13" />
  </linearGradient>
  <path
     style="color:#000000;font-style:normal;font-variant:normal;font-weight:normal;font-stretch:normal;font-size:medium;line-height:normal;font-family:sans-serif;font-variant-ligatures:normal;font-variant-position:normal;font-variant-caps:normal;font-variant-numeric:normal;font-variant-alternates:normal;font-feature-settings:normal;text-indent:0;text-align:start;text-decoration:none;text-decoration-line:none;text-decoration-style:solid;text-decoration-color:#000000;letter-spacing:normal;word-spacing:normal;text-transform:none;writing-mode:lr-tb;direction:ltr;text-orientation:mixed;dominant-baseline:auto;baseline-shift:baseline;text-anchor:start;white-space:normal;shape-padding:0;clip-rule:nonzero;display:inline;overflow:visible;visibility:visible;opacity:0.1;isolation:auto;mix-blend-mode:normal;color-interpolation:sRGB;color-interpolation-filters:linearRGB;solid-color:#000000;solid-opacity:1;vector-effect:none;fill:#000000;fill-opacity:1;fill-rule:nonzero;stroke:none;stroke-width:0.52916664;stroke-linecap:butt;stroke-linejoin:miter;stroke-miterlimit:4;stroke-dasharray:none;stroke-dashoffset:0;stroke-opacity:1;marker:none;color-rendering:auto;image-rendering:auto;shape-rendering:auto;text-rendering:auto;enable-background:accumulate"
     d="M 4.162403,0.39686933 C 3.5742607,0.38791063 3.1110334,0.41041073 2.7299329,0.47438413 2.3488297,0.53835613 2.0369759,0.65834863 1.80854,0.88624513 1.5801067,1.1141418 1.4595387,1.4258551 1.3961631,1.8071191 1.3327875,2.1883835 1.3204155,2.6525531 1.3232995,3.2421736 V 6.482286 9.7239483 c -0.00286,0.5887147 0.00955,1.0526497 0.072864,1.4335037 0.063376,0.381265 0.1839436,0.692978 0.4123769,0.920875 0.2284359,0.227896 0.5402897,0.34789 0.9213929,0.411861 0.3811032,0.06397 0.844259,0.07752 1.4324701,0.07752 H 8.538363 c 0.5882111,0 1.0511261,-0.01352 1.4314382,-0.07752 0.3803118,-0.064 0.6912128,-0.184399 0.9188048,-0.412377 0.227595,-0.227978 0.347451,-0.53947 0.411345,-0.920359 0.06389,-0.380886 0.07752,-0.844114 0.07752,-1.4335037 V 6.482286 3.307286 L 8.5383626,0.46353193 Z"
     id="path1020"
     inkscape:connector-curvature="0"
     sodipodi:nodetypes="sccsccccccsscccscccs" />
  <path
     style="color:#000000;display:inline;overflow:visible;visibility:visible;fill:url(#linearGradient1024);fill-opacity:1;fill-rule:nonzero;stroke:none;stroke-width:0.26458332;marker:none;enable-background:accumulate"
     d="m 4.1018795,0.26457824 c -2.3994956,0 -2.6576787,0.24525529 -2.6459179,2.63787836 v 3.3152466 3.3152471 c -0.011774,2.3926217 0.2464223,2.6378777 2.6459179,2.6378777 h 4.4973796 c 2.3994959,0 2.6459179,-0.245227 2.6459179,-2.6378777 V 6.2177032 L 11.244995,2.9705442 8.5257684,0.26457824 Z"
     id="path964"
     inkscape:connector-curvature="0"
     sodipodi:nodetypes="scccssscccs" />
  <path
     d="M 5.2068793,7.5424976 C 5.4046302,7.1548968 5.629371,6.7181938 5.8092527,6.2797586 v 0 L 5.8803775,6.1066824 C 5.6454201,5.2125964 5.5045305,4.4949096 5.6303965,4.0308455 v 0 C 5.6642796,3.9098581 5.8044093,3.8364527 5.9542251,3.8364527 v 0 l 0.091293,0.00135 h 0.016756 c 0.2051042,-0.00315 0.3016816,0.2577584 0.3126404,0.3591968 v 0 c 0.0181,0.1689402 -0.060061,0.4548553 -0.060061,0.4548553 v 0 c 0,-0.115455 0.00452,-0.3020174 -0.06835,-0.4630034 v 0 C 6.1616796,4.0025708 6.0806562,3.8912873 6.0080112,3.8736475 v 0 c -0.036676,0.024498 -0.072328,0.075226 -0.084541,0.172811 v 0 c -0.025294,0.1368243 -0.032876,0.3095292 -0.032876,0.3985596 v 0 c 0,0.3145494 0.061934,0.7297238 0.183646,1.1577127 v 0 c 0.02296,-0.066265 0.043163,-0.1299308 0.05923,-0.1895853 v 0 C 6.1584278,5.3191308 6.3170985,4.6959186 6.3170985,4.6959186 v 0 c 0,0 -0.039982,0.8295888 -0.095836,1.0805953 v 0 c -0.011967,0.053044 -0.02517,0.1055037 -0.038921,0.1592014 v 0 c 0.2007026,0.5607836 0.5241071,1.061294 0.9099053,1.421516 v 0 c 0.1521135,0.1421622 0.3442261,0.2567866 0.5260515,0.361265 v 0 c 0.3970759,-0.056738 0.7626711,-0.083533 1.0676756,-0.080157 v 0 c 0.4046577,0.00534 0.7016904,0.065186 0.8219707,0.1836637 v 0 c 0.058894,0.057586 0.082791,0.1271381 0.090215,0.2051036 v 0 c 0.00177,0.030331 -0.013009,0.1015974 -0.017341,0.1194851 v 0 c 0.00433,-0.021653 0.00433,-0.1281282 -0.320506,-0.2318113 v 0 C 9.0044806,7.8329966 8.525675,7.8355416 7.9511405,7.8966985 v 0 c 0.6645376,0.3251192 1.3119473,0.4866537 1.5171217,0.3898106 v 0 C 9.5184248,8.2620643 9.5792631,8.1787076 9.5792631,8.1787076 v 0 c 0,0 -0.036163,0.1643096 -0.062129,0.2053867 v 0 c -0.033141,0.04463 -0.098151,0.092972 -0.1597843,0.1092687 v 0 C 9.0333268,8.5798127 8.1898807,8.3797639 7.4545893,7.9596228 v 0 C 6.6330779,8.0806101 5.7308789,8.3041137 5.0076954,8.5413158 v 0 C 4.2970256,9.7867683 3.7627374,10.358776 3.3280848,10.141176 v 0 L 3.168284,10.060816 C 3.103327,10.023666 3.093411,9.9332183 3.108435,9.8595653 v 0 C 3.15911,9.6116353 3.4700004,9.2382091 4.0944853,8.8653143 v 0 c 0.06722,-0.04067 0.3666391,-0.1989876 0.3666391,-0.1989876 v 0 c 0,0 -0.2216658,0.2145427 -0.2735958,0.256645 v 0 C 3.6890859,9.3314297 3.3212104,9.8453033 3.3303839,10.04452 v 0 l 0.0018,0.01737 C 3.7555968,10.001552 4.3905632,9.139742 5.2068782,7.5424981 M 5.4655733,7.6749568 C 5.3292263,7.9317434 5.1959546,8.1698292 5.072917,8.3884367 v 0 C 5.7535214,8.1032817 6.4860553,7.920802 7.1833623,7.7911715 v 0 C 7.0896482,7.7264627 6.9986736,7.6579353 6.9130722,7.5855022 v 0 C 6.5290765,7.260401 6.2363214,6.8548066 6.0241118,6.4280017 v 0 C 5.8895323,6.7905743 5.7295004,7.1758603 5.4655733,7.6749568"
     id="path1001"
     inkscape:connector-curvature="0"
     style="display:inline;fill:#ffffff;stroke-width:0.10366805;enable-background:new" />
  <path
     style="color:#000000;display:inline;overflow:visible;visibility:visible;opacity:0.1;fill:#ffffff;fill-opacity:1;fill-rule:nonzero;stroke:none;stroke-width:0.26458332;marker:none;enable-background:accumulate"
     d="M 1.5878828,6.2177027 V 9.4593653 C 1.5764268,11.798818 1.827672,12.038536 4.162403,12.038536 h 4.3759596 c 2.3347314,0 2.5745204,-0.239691 2.5745204,-2.5791707 V 6.2177027 Z"
     id="path1006"
     inkscape:connector-curvature="0" />
  <path
     style="color:#000000;display:inline;overflow:visible;visibility:visible;opacity:0.1;fill:#ffffff;fill-opacity:1;fill-rule:nonzero;stroke:none;stroke-width:0.26458332;marker:none;enable-background:accumulate"
     d="M 6.3503828,0.39686933 V 12.038536 h 2.1879798 c 2.3347314,0 2.5745204,-0.239691 2.5745204,-2.5791707 v -3.2416626 -3.175 L 8.4670495,0.39686933 Z"
     id="path1013"
     inkscape:connector-curvature="0"
     sodipodi:nodetypes="ccsscccc" />
  <path
     style="color:#000000;font-style:normal;font-variant:normal;font-weight:normal;font-stretch:normal;font-size:medium;line-height:normal;font-family:sans-serif;font-variant-ligatures:normal;font-variant-position:normal;font-variant-caps:normal;font-variant-numeric:normal;font-variant-alternates:normal;font-feature-settings:normal;text-indent:0;text-align:start;text-decoration:none;text-decoration-line:none;text-decoration-style:solid;text-decoration-color:#000000;letter-spacing:normal;word-spacing:normal;text-transform:none;writing-mode:lr-tb;direction:ltr;text-orientation:mixed;dominant-baseline:auto;baseline-shift:baseline;text-anchor:start;white-space:normal;shape-padding:0;clip-rule:nonzero;display:inline;overflow:visible;visibility:visible;opacity:0.4;isolation:auto;mix-blend-mode:normal;color-interpolation:sRGB;color-interpolation-filters:linearRGB;solid-color:#000000;solid-opacity:1;vector-effect:none;fill:#000000;fill-opacity:1;fill-rule:nonzero;stroke:none;stroke-width:0.52916664;stroke-linecap:butt;stroke-linejoin:miter;stroke-miterlimit:4;stroke-dasharray:none;stroke-dashoffset:0;stroke-opacity:1;marker:none;color-rendering:auto;image-rendering:auto;shape-rendering:auto;text-rendering:auto;enable-background:accumulate"
     d="m 4.162403,0.13228604 c -0.5882111,0 -1.0513696,0.0135414 -1.4324701,0.0775147 C 2.3488297,0.27377277 2.0369759,0.39376533 1.80854,0.62166173 1.5801067,0.84955853 1.4595387,1.1612718 1.3961631,1.5425358 1.3327875,1.9238001 1.3204155,2.3879698 1.3232995,2.9775903 v 3.2401124 3.2416626 c -0.00286,0.5887147 0.00955,1.0526497 0.072864,1.4335037 0.063376,0.381265 0.1839436,0.692978 0.4123769,0.920874 0.2284359,0.227897 0.5402897,0.34789 0.9213929,0.411861 0.3811032,0.06397 0.844259,0.07752 1.4324701,0.07752 H 8.538363 c 0.5882111,0 1.0511261,-0.01352 1.4314382,-0.07752 0.3803118,-0.064 0.6912128,-0.184398 0.9188048,-0.412377 0.227595,-0.227978 0.347451,-0.539469 0.411345,-0.920358 0.06389,-0.380886 0.07752,-0.844114 0.07752,-1.4335037 V 6.2177027 2.9331488 L 8.5766028,0.13228604 Z m 0,0.26458329 H 8.4670495 L 11.112883,3.0427027 v 3.175 3.2416626 c 0,2.3394797 -0.239789,2.5791707 -2.5745204,2.5791707 H 4.162403 c -2.334731,0 -2.5859766,-0.239718 -2.5745202,-2.5791707 V 6.2177027 2.9760401 C 1.5764396,0.63658633 1.827672,0.39686933 4.162403,0.39686933 Z"
     id="path958"
     inkscape:connector-curvature="0"
     sodipodi:nodetypes="sccsccccccsscccscccsscccssscccs" />
  <path
     style="color:#000000;font-style:normal;font-variant:normal;font-weight:normal;font-stretch:normal;font-size:medium;line-height:normal;font-family:sans-serif;font-variant-ligatures:normal;font-variant-position:normal;font-variant-caps:normal;font-variant-numeric:normal;font-variant-alternates:normal;font-feature-settings:normal;text-indent:0;text-align:start;text-decoration:none;text-decoration-line:none;text-decoration-style:solid;text-decoration-color:#000000;letter-spacing:normal;word-spacing:normal;text-transform:none;writing-mode:lr-tb;direction:ltr;text-orientation:mixed;dominant-baseline:auto;baseline-shift:baseline;text-anchor:start;white-space:normal;shape-padding:0;clip-rule:nonzero;display:inline;overflow:visible;visibility:visible;opacity:0.4;isolation:auto;mix-blend-mode:normal;color-interpolation:sRGB;color-interpolation-filters:linearRGB;solid-color:#000000;solid-opacity:1;vector-effect:none;fill:url(#linearGradient1004);fill-opacity:1;fill-rule:nonzero;stroke:none;stroke-width:0.52916664;stroke-linecap:butt;stroke-linejoin:miter;stroke-miterlimit:4;stroke-dasharray:none;stroke-dashoffset:0;stroke-opacity:1;marker:none;color-rendering:auto;image-rendering:auto;shape-rendering:auto;text-rendering:auto;enable-background:accumulate"
     clip-path="none"
     d="m 4.162403,0.39686933 c -2.334731,0 -2.5859634,0.239717 -2.5745202,2.57917077 V 6.2177027 9.4593653 C 1.5764268,11.798818 1.827672,12.038536 4.162403,12.038536 h 4.3759596 c 2.3347314,0 2.5745204,-0.239691 2.5745204,-2.5791707 v -3.2416626 -3.175 H 10.8483 v 3.175 3.2416626 c 0,0.5803507 -0.01625,1.0241217 -0.07028,1.3461697 -0.05402,0.322051 -0.139877,0.509149 -0.264067,0.633556 -0.12419,0.124394 -0.310716,0.21051 -0.6320021,0.264583 -0.3212889,0.05406 -0.7644342,0.07028 -1.3435886,0.07028 H 4.162403 c -0.5791544,0 -1.0228501,-0.01619 -1.3451391,-0.07028 C 2.4949776,11.649569 2.3069435,11.563577 2.1821608,11.439091 2.0573806,11.314596 1.971563,11.127724 1.918096,10.806054 1.8646264,10.484384 1.8496245,10.040505 1.8524661,9.4603983 V 9.4598693 6.2177027 2.9755234 2.9749942 C 1.8496351,2.3948878 1.8646369,1.9510104 1.918096,1.6293398 1.9715656,1.3076691 2.0573806,1.12079 2.1821608,0.99630353 2.3069409,0.87181713 2.4954962,0.78581953 2.8177825,0.73172023 3.1400688,0.67764573 3.5832486,0.66145273 4.162403,0.66145273 h 4.3046465 v -0.2645834 z"
     id="path990"
     inkscape:connector-curvature="0" />
  <path
     inkscape:connector-curvature="0"
     style="color:#000000;display:inline;overflow:visible;visibility:visible;opacity:0.6;fill:#830e21;fill-opacity:1;fill-rule:nonzero;stroke:none;stroke-width:0.06615189;marker:none;enable-background:accumulate"
     d="M 11.112883,3.307286 V 3.0427027 L 8.4670495,0.39686933 H 8.2024661 v 1.11364557 0.04267 0.022918 c 0,1.506003 0.2016019,1.7382252 1.7110604,1.7308441 z"
     id="rect4158-0-3-62-2"
     sodipodi:nodetypes="ccccccscc" />
  <path
     inkscape:connector-curvature="0"
     style="color:#000000;display:inline;overflow:visible;visibility:visible;fill:#f66f7e;fill-opacity:1;fill-rule:nonzero;stroke:none;stroke-width:0.06615189;marker:none;enable-background:accumulate"
     d="M 11.112883,3.042364 8.4670495,0.39686883 V 1.378193 1.420863 1.443781 c 0,1.5060031 0.069406,1.6059637 1.5788645,1.5985826 z"
     id="rect4158-0-3-62"
     sodipodi:nodetypes="ccccscc" />
</svg>
